X:672
T:Out On the Ocean
S:Session etc
Z:Nigel Gatherer
M:6/8
L:1/8
K:G
D2B BAG | BdB ABA | GED G2A |   B3  AGE  |
D2B BAG | BdB ABA | GED G2A | 1 BGF G3  :|
                              2 BGF GBd ||
e2e edB | e2e edB | d2d def |   gfe dBA  |
G2A B2d | ege dBA | GED G2A | 1 BGF GBd :|
                              2 BGF G3  |]
